package/converter/svg/light/file-export.svg

<svg xmlns="http://www.w3.org/2000/svg" viewBox="0 0 576 512"><!-- Font Awesome Pro 6.0.0-alpha2 by @fontawesome - https://fontawesome.com License - https://fontawesome.com/license (Commercial License) --><path d="M571.312 308.688L475.312 212.688C469.062 206.438 458.937 206.438 452.688 212.688S446.438 229.063 452.688 235.312L521.375 304H208C199.156 304 192 311.156 192 320S199.156 336 208 336H521.375L452.688 404.688C446.438 410.938 446.438 421.063 452.688 427.312C455.812 430.438 459.906 432 464 432S472.188 430.438 475.312 427.312L571.312 331.312C577.562 325.062 577.562 314.938 571.312 308.688ZM368 384C359.164 384 352 391.164 352 400V448C352 465.674 337.674 480 320 480H64C46.328 480 32 465.674 32 448V64C32 46.326 46.328 32 64 32H192V144C192 170.51 213.49 192 240 192H352V240C352 248.836 359.164 256 368 256C376.838 256 384 248.836 384 240V170.51C384 153.535 377.258 137.254 365.254 125.252L258.746 18.744C246.742 6.742 230.465 0 213.49 0H64C28.654 0 0 28.654 0 64V448C0 483.346 28.654 512 64 512H320C355.348 512 384 483.346 384 448V400C384 391.164 376.838 384 368 384ZM224 34.076C228.477 35.643 232.666 37.922 236.119 41.375L342.627 147.879C346.08 151.332 348.357 155.523 349.924 160H240C231.188 160 224 152.828 224 144V34.076Z"/></svg>

<svg xmlns="http://www.w3.org/2000/svg" viewBox="0 0 576 512"><!--! Font Awesome Pro 6.6.0 by @fontawesome - https://fontawesome.com License - https://fontawesome.com/license (Commercial License) Copyright 2024 Fonticons, Inc. --><path d="M352 448c0 17.7-14.3 32-32 32L64 480c-17.7 0-32-14.3-32-32L32 64c0-17.7 14.3-32 32-32l128 0 0 112c0 26.5 21.5 48 48 48l112 0 0 64 32 0 0-92.1c0-12.7-5.1-24.9-14.1-33.9L254.1 14.1c-9-9-21.2-14.1-33.9-14.1L64 0C28.7 0 0 28.7 0 64L0 448c0 35.3 28.7 64 64 64l256 0c35.3 0 64-28.7 64-64l0-80-32 0 0 80zm-.5-288L240 160c-8.8 0-16-7.2-16-16l0-111.5c2.8 .7 5.4 2.1 7.4 4.2L347.3 152.6c2.1 2.1 3.5 4.6 4.2 7.4zm123.8 52.7c-6.2-6.2-16.4-6.2-22.6 0s-6.2 16.4 0 22.6L521.4 304 208 304c-8.8 0-16 7.2-16 16s7.2 16 16 16l313.4 0-68.7 68.7c-6.2 6.2-6.2 16.4 0 22.6s16.4 6.2 22.6 0l96-96c6.2-6.2 6.2-16.4 0-22.6l-96-96z"/></svg>
